icons-dark/actions/22/document-print.svg

<svg xmlns="http://www.w3.org/2000/svg" viewBox="0 0 22 22">
  <defs id="defs3051">
    <style type="text/css" id="current-color-scheme">
      .ColorScheme-Text {
        color:#f2f2f2
      }
      </style>
  </defs>
 <path 
    style="fill:currentColor;fill-opacity:1;stroke:none" 
	d="m5 3v1 4h-2v1 7h1 3v2 1h8v-1-2h4v-1-6-1h-2v-4-1h-12m1 1h10v4h-1v-1h-8v1h-1v-4m1 1v1h8v-1h-8m-3 4h14v6h-2v-2h-10v2h-2v-6m10 1v1h3v-1h-3m-6 6h6v2h-6v-2"
    class="ColorScheme-Text"
    />
</svg>

<?xml version="1.0" encoding="UTF-8" standalone="no"?>
<!-- Created with Inkscape (http://www.inkscape.org/) -->

<svg
   xmlns:dc="http://purl.org/dc/elements/1.1/"
   xmlns:cc="http://creativecommons.org/ns#"
   xmlns:rdf="http://www.w3.org/1999/02/22-rdf-syntax-ns#"
   xmlns:svg="http://www.w3.org/2000/svg"
   xmlns="http://www.w3.org/2000/svg"
   xmlns:sodipodi="http://sodipodi.sourceforge.net/DTD/sodipodi-0.dtd"
   xmlns:inkscape="http://www.inkscape.org/namespaces/inkscape"
   width="22"
   height="22"
   id="svg3404"
   version="1.1"
   inkscape:version="0.48+devel r"
   sodipodi:docname="document-print.svg">
  <defs
     id="defs3406" />
  <sodipodi:namedview
     id="base"
     pagecolor="#ffffff"
     bordercolor="#666666"
     borderopacity="1.0"
     inkscape:pageopacity="0.0"
     inkscape:pageshadow="2"
     inkscape:zoom="22.724638"
     inkscape:cx="11.423423"
     inkscape:cy="11.621687"
     inkscape:document-units="px"
     inkscape:current-layer="layer1"
     showgrid="true"
     fit-margin-top="0"
     fit-margin-left="0"
     fit-margin-right="0"
     fit-margin-bottom="0"
     inkscape:window-width="1366"
     inkscape:window-height="718"
     inkscape:window-x="-2"
     inkscape:window-y="23"
     inkscape:window-maximized="1"
     inkscape:showpageshadow="false">
    <inkscape:grid
       type="xygrid"
       id="grid4117" />
    <sodipodi:guide
       position="2.0000117,19.999986"
       orientation="18,0"
       id="guide4123" />
    <sodipodi:guide
       position="2.0000117,1.9999857"
       orientation="0,18"
       id="guide4125" />
    <sodipodi:guide
       position="20.000012,1.9999857"
       orientation="-18,0"
       id="guide4127" />
    <sodipodi:guide
       position="20.000012,19.999986"
       orientation="0,-18"
       id="guide4129" />
    <sodipodi:guide
       position="3.0000117,18.999986"
       orientation="16,0"
       id="guide4131" />
    <sodipodi:guide
       position="3.0000117,2.9999857"
       orientation="0,16"
       id="guide4133" />
    <sodipodi:guide
       position="19.000012,2.9999857"
       orientation="-16,0"
       id="guide4135" />
    <sodipodi:guide
       position="19.000012,18.999986"
       orientation="0,-16"
       id="guide4137" />
  </sodipodi:namedview>
  <metadata
     id="metadata3409">
    <rdf:RDF>
      <cc:Work
         rdf:about="">
        <dc:format>image/svg+xml</dc:format>
        <dc:type
           rdf:resource="http://purl.org/dc/dcmitype/StillImage" />
        <dc:title></dc:title>
      </cc:Work>
    </rdf:RDF>
  </metadata>
  <g
     inkscape:label="Capa 1"
     inkscape:groupmode="layer"
     id="layer1"
     transform="translate(-384.57143,-482.93361)">
    <path
       style="opacity:1;fill:#f2f2f2;fill-opacity:1;stroke:none"
       d="M 5 3 L 5 4 L 5 8 L 3 8 L 3 9 L 3 16 L 4 16 L 7 16 L 7 18 L 7 19 L 15 19 L 15 18 L 15 16 L 19 16 L 19 15 L 19 9 L 19 8 L 17 8 L 17 4 L 17 3 L 5 3 z M 6 4 L 16 4 L 16 8 L 15 8 L 15 7 L 7 7 L 7 8 L 6 8 L 6 4 z M 7 5 L 7 6 L 15 6 L 15 5 L 7 5 z M 4 9 L 18 9 L 18 15 L 16 15 L 16 13 L 6 13 L 6 15 L 4 15 L 4 9 z M 14 10 L 14 11 L 17 11 L 17 10 L 14 10 z M 8 16 L 14 16 L 14 18 L 8 18 L 8 16 z "
       transform="translate(384.57143,482.93361)"
       id="rect4145" />
  </g>
</svg>
